X: 1805
T: the Hurler's March   #2
R: march
%S: s:2 b:13(7+6)
B: O'Neill's 1850 #1805
O: F.O'Neill
Z: Bob Safranek, rjs@gsp.org
N: Compacted via repeats and multiple endings [JC]
M: 2/4
L: 1/16
K: D
"^A"|: AG | F2A2 ABAF | G2B2 [1 BcBG | F2A2 efed | c2A2 AB :|[2 B2((3ABc) | dedc ABAG | F2D2 D2 :|
"^B"|: de |: f2d2 f2d2 | fdfg a2a2 |1 ecAc ecAc | e2f2 g2ag :|2 dedc ABAG | F2D2 D2 :|
